icons/FormLabel.svg

<svg height="16" viewBox="0 0 16 16" width="16" xmlns="http://www.w3.org/2000/svg"><path d="m5.9785156 3a1 1 0 0 0 -.7070312.2929688l-4 4a1 1 0 0 0 0 1.4140624l4 3.9999998a1 1 0 0 0 .7070312.292969h8.0000004a1 1 0 0 0 1-1v-8a1 1 0 0 0 -1-1zm4.9863284 1.5800781v.0097657l.027344 2.359375 2.152343-.6992188.091797-.03125.007813-.0019531.552734 1.6640625-2.244141.7578125 1.386719 1.9062501.005859.007812-1.412109 1.039063-.003906-.009766-1.410156-1.8886716-1.384766 1.9062496-.0058594.009766-1.4238281-1.021484.0058594-.009766.0410156-.058594 1.3222656-1.8652341-2.2421875-.7285157-.0097656-.0019531.53125-1.6699219.0097656.0039063 2.2519532.703125-.0019532-2.359375v-.0097656zm-5.9863284 2.4199219a1 1 0 0 1 0 2 1 1 0 0 1 0-2z" fill="#8eef97"/></svg>

<?xml version="1.0" encoding="UTF-8" standalone="no"?>
<svg
   height="16"
   viewBox="0 0 16 16"
   width="16"
   version="1.1"
   id="svg1"
   sodipodi:docname="FormLabel.svg"
   inkscape:version="1.3 (0e150ed6c4, 2023-07-21)"
   xmlns:inkscape="http://www.inkscape.org/namespaces/inkscape"
   xmlns:sodipodi="http://sodipodi.sourceforge.net/DTD/sodipodi-0.dtd"
   xmlns="http://www.w3.org/2000/svg"
   xmlns:svg="http://www.w3.org/2000/svg">
  <defs
     id="defs1" />
  <sodipodi:namedview
     id="namedview1"
     pagecolor="#505050"
     bordercolor="#eeeeee"
     borderopacity="1"
     inkscape:showpageshadow="0"
     inkscape:pageopacity="0"
     inkscape:pagecheckerboard="0"
     inkscape:deskcolor="#505050"
     inkscape:zoom="52.032406"
     inkscape:cx="8.052674"
     inkscape:cy="9.8592404"
     inkscape:window-width="1920"
     inkscape:window-height="1043"
     inkscape:window-x="0"
     inkscape:window-y="747"
     inkscape:window-maximized="1"
     inkscape:current-layer="svg1" />
  <path
     id="path1"
     d="M 5.9785156 3 A 1 1 0 0 0 5.2714844 3.2929688 L 1.2714844 7.2929688 A 1 1 0 0 0 1.2714844 8.7070312 L 5.2714844 12.707031 A 1 1 0 0 0 5.9785156 13 L 13.978516 13 A 1 1 0 0 0 14.978516 12 L 14.978516 4 A 1 1 0 0 0 13.978516 3 L 5.9785156 3 z M 10.964844 4.5800781 L 10.964844 4.5898438 L 10.992188 6.9492188 L 13.144531 6.25 L 13.236328 6.21875 L 13.244141 6.2167969 L 13.796875 7.8808594 L 11.552734 8.6386719 L 12.939453 10.544922 L 12.945312 10.552734 L 11.533203 11.591797 L 11.529297 11.582031 L 10.119141 9.6933594 L 8.734375 11.599609 L 8.7285156 11.609375 L 7.3046875 10.587891 L 7.3105469 10.578125 L 7.3515625 10.519531 L 8.6738281 8.6542969 L 6.4316406 7.9257812 L 6.421875 7.9238281 L 6.953125 6.2539062 L 6.9628906 6.2578125 L 9.2148438 6.9609375 L 9.2128906 4.6015625 L 9.2128906 4.5917969 L 10.964844 4.5800781 z M 4.9785156 7 A 1 1 0 0 1 4.9785156 9 A 1 1 0 0 1 4.9785156 7 z "
     style="stroke:none;stroke-opacity:1;fill:#8eef97;fill-opacity:1" />
  <g
     id="path2"
     inkscape:transform-center-x="-0.0089065213"
     inkscape:transform-center-y="-0.17638077"
     transform="matrix(0.55045219,0,0,0.55045219,5.7169834,3.8538552)"
     style="stroke-width:3.36087;stroke-dasharray:none" />
</svg>
